assets/images/_common/compass-full.svg

<svg fill="none" height="32" viewBox="0 0 32 32" width="32" xmlns="http://www.w3.org/2000/svg"><path d="m16 .942871 1.6 13.484929 13.4849 1.6-13.4849 1.6-1.6 13.485-1.6-13.485-13.484961-1.6 13.484961-1.6z" fill="#beaba1"/><path d="m24 8-6.8686 8 6.8686 8-8-6.8686-8 6.8686 6.8686-8-6.8686-8 8 6.8686z" fill="#beaba1"/><circle cx="16.0001" cy="16.0278" r="8.11028" stroke="#beaba1" stroke-width=".75"/></svg>

<svg width="32" height="32" viewBox="0 0 32 32" fill="none" xmlns="http://www.w3.org/2000/svg">
<path d="M16 0.942871L17.6 14.4278L31.0849 16.0278L17.6 17.6278L16 31.1128L14.4 17.6278L0.915039 16.0278L14.4 14.4278L16 0.942871Z" fill="#BEABA1"/>
<path d="M24 8L17.1314 16L24 24L16 17.1314L8 24L14.8686 16L8 8L16 14.8686L24 8Z" fill="#BEABA1"/>
<circle cx="16.0001" cy="16.0278" r="8.11028" stroke="#BEABA1" stroke-width="0.75"/>
</svg>
